X: 80
T: the Connaught Man's Rambles
R: jig
Z: 2012 John Chambers <jc@trillian.mit.edu>
B: "100 Essential Irish Session Tunes" 1995 Dave Mallinson, ed.
M: 6/8
L: 1/8
K: D
A |\
"D"FAA dAA | "G"BAB dAG | "D"FAA dfe | "G"dBB B2A |\
"D"FAA dAA | "G"BAB def | "Em"gfe "Bm"dfe | "G"dBB B2 :|
|: e |\
"Bm"fbb faa | fef def | fbb faa | fed "A"e2e |\
"Bm"fbb faa | "D"fef def | "Em"gfe "Bm"dfe | "G"dBB B2 :|
